images/logo_your_site.svg

<svg width="40" height="40" fill="none" xmlns="http://www.w3.org/2000/svg"><path fill-rule="evenodd" clip-rule="evenodd" d="M10.9095 7.32128c.3625-.62977.8669-1.16529 1.4725-1.5633l4.3179-2.47426c1.1453-.66549 2.0869-.11949 2.0869 1.21151V18.4878c0 1.3311-.9416 1.8771-2.0869 1.2116l-4.3179-2.5596c-.6056-.398-1.11-.9335-1.4725-1.5633-.3624-.6298-.5728-1.3364-.6143-2.0629V9.38412c.0415-.72651.2519-1.43307.6143-2.06284ZM9.91003 17.557c.70257 0 1.39527.1637 2.02217.4777l4.2009 2.3824c1.1121.6364 1.1121 1.6726 0 2.309L4.43649 29.4165c-1.11197.6364-2.02633.1142-2.02633-1.1586v-4.7975c.04027-.6947.24461-1.3704.59653-1.9726.35198-.6023.8417-1.1143 1.4298-1.4949l3.45134-1.9582c.62692-.314 1.31965-.4777 2.0222-.4777ZM27.6177 5.75798c.6057.39801 1.11.93353 1.4724 1.5633.3625.62977.573 1.33633.6144 2.06284v4.12948c-.0414.7265-.2519 1.4331-.6144 2.0629-.3624.6298-.8667 1.1653-1.4724 1.5633l-4.3264 2.5596c-1.1452.6655-2.0784.1195-2.0784-1.2116V4.49523c0-1.331.9332-1.877 2.0784-1.21151l4.3264 2.47426ZM29.7814 17.557c-.7323 0-1.4542.1637-2.1076.4777l-4.3785 2.3824c-1.159.6364-1.159 1.6726 0 2.309l12.1909 6.6904c1.159.6364 2.1033.1142 2.1033-1.1586v-4.7975c-.0403-.6941-.2517-1.3696-.617-1.9719-.3653-.6023-.8744-1.1146-1.4863-1.4956l-3.5972-1.9582c-.6534-.314-1.3754-.4777-2.1076-.4777ZM9.87411 35.8827c.62729.3136 1.32039.477 2.02329.477.703 0 1.3961-.1634 2.0234-.477l3.4533-1.9637c.5876-.3823 1.0762-.8954 1.4269-1.4982s.5535-1.2785.5923-1.9728v-4.7911c0-1.2711-.9066-1.7926-2.0192-1.157L5.67078 31.1813c-1.11263.6355-1.11263 1.6703 0 2.3059l4.20333 2.3955Zm10.74369-3.4634c-.3652-.6009-.5768-1.2748-.6179-1.9674v-4.796c0-1.2702.9444-1.7913 2.1034-1.1562l12.1909 6.6769c1.1589.6351 1.1589 1.6693 0 2.3044l-4.3785 2.402c-.6534.3135-1.3754.4767-2.1076.4767-.7322 0-1.4542-.1632-2.1076-.4767l-3.5972-1.9705c-.6114-.3808-1.1201-.8921-1.4855-1.4932Z" fill="#36485C"/></svg>

<svg width="40" height="40" viewBox="0 0 40 40" fill="none" xmlns="http://www.w3.org/2000/svg">
<path fill-rule="evenodd" clip-rule="evenodd" d="M10.9095 7.32128C11.272 6.69151 11.7764 6.15599 12.382 5.75798L16.6999 3.28372C17.8452 2.61823 18.7868 3.16423 18.7868 4.49523V18.4878C18.7868 19.8189 17.8452 20.3649 16.6999 19.6994L12.382 17.1398C11.7764 16.7418 11.272 16.2063 10.9095 15.5765C10.5471 14.9467 10.3367 14.2401 10.2952 13.5136V9.38412C10.3367 8.65761 10.5471 7.95105 10.9095 7.32128ZM9.91003 17.557C10.6126 17.557 11.3053 17.7207 11.9322 18.0347L16.1331 20.4171C17.2452 21.0535 17.2452 22.0897 16.1331 22.7261L4.43649 29.4165C3.32452 30.0529 2.41016 29.5307 2.41016 28.2579V23.4604C2.45043 22.7657 2.65477 22.09 3.00669 21.4878C3.35867 20.8855 3.84839 20.3735 4.43649 19.9929L7.88783 18.0347C8.51475 17.7207 9.20748 17.557 9.91003 17.557ZM27.6177 5.75798C28.2234 6.15599 28.7277 6.69151 29.0901 7.32128C29.4526 7.95105 29.6631 8.65761 29.7045 9.38412V13.5136C29.6631 14.2401 29.4526 14.9467 29.0901 15.5765C28.7277 16.2063 28.2234 16.7418 27.6177 17.1398L23.2913 19.6994C22.1461 20.3649 21.2129 19.8189 21.2129 18.4878V4.49523C21.2129 3.16423 22.1461 2.61823 23.2913 3.28372L27.6177 5.75798ZM29.7814 17.557C29.0491 17.557 28.3272 17.7207 27.6738 18.0347L23.2953 20.4171C22.1363 21.0535 22.1363 22.0897 23.2953 22.7261L35.4862 29.4165C36.6452 30.0529 37.5895 29.5307 37.5895 28.2579V23.4604C37.5492 22.7663 37.3378 22.0908 36.9725 21.4885C36.6072 20.8862 36.0981 20.3739 35.4862 19.9929L31.889 18.0347C31.2356 17.7207 30.5136 17.557 29.7814 17.557ZM9.87411 35.8827C10.5014 36.1963 11.1945 36.3597 11.8974 36.3597C12.6004 36.3597 13.2935 36.1963 13.9208 35.8827L17.3741 33.919C17.9617 33.5367 18.4503 33.0236 18.801 32.4208C19.1517 31.818 19.3545 31.1423 19.3933 30.448V25.6569C19.3933 24.3858 18.4867 23.8643 17.3741 24.4999L5.67078 31.1813C4.55815 31.8168 4.55815 32.8516 5.67078 33.4872L9.87411 35.8827ZM20.6178 32.4193C20.2526 31.8184 20.041 31.1445 19.9999 30.4519V25.6559C19.9999 24.3857 20.9443 23.8646 22.1033 24.4997L34.2942 31.1766C35.4531 31.8117 35.4531 32.8459 34.2942 33.481L29.9157 35.883C29.2623 36.1965 28.5403 36.3597 27.8081 36.3597C27.0759 36.3597 26.3539 36.1965 25.7005 35.883L22.1033 33.9125C21.4919 33.5317 20.9832 33.0204 20.6178 32.4193Z" fill="#36485C"/>
</svg>
